resources/svg/icon-file.svg

<svg width="18" height="18" viewBox="0 0 18 18" fill="none" xmlns="http://www.w3.org/2000/svg">
<path d="M9.75039 1.69499V4.79249C9.75039 5.46749 9.75789 5.62499 9.90789 5.91749C10.0504 6.19499 10.2754 6.42749 10.5604 6.56999C10.8529 6.71999 11.0104 6.72749 11.6854 6.72749H14.7829C15.1954 6.72749 15.5329 6.38999 15.5329 5.97749C15.5329 5.55749 15.1954 5.22749 14.7829 5.22749H11.6779C11.3029 5.22749 11.2129 5.21999 11.2204 5.22749C11.2204 5.22749 11.2204 5.22749 11.2129 5.21999C11.2129 5.22749 11.2129 5.13749 11.2129 4.76999V1.66499C11.2129 1.24499 10.8754 0.914994 10.4629 0.914994C10.0429 0.914994 9.71289 1.24499 9.71289 1.66499L9.75039 1.69499ZM10.5004 11.9925H6.00039C5.58039 11.9925 5.25039 12.3225 5.25039 12.7425C5.25039 13.155 5.58039 13.4925 6.00039 13.4925H10.5004C10.9129 13.4925 11.2504 13.155 11.2504 12.7425C11.2504 12.3225 10.9129 11.9925 10.5004 11.9925ZM12.0004 8.99249H6.00039C5.58039 8.99249 5.25039 9.32249 5.25039 9.74249C5.25039 10.155 5.58039 10.4925 6.00039 10.4925H12.0004C12.4129 10.4925 12.7504 10.155 12.7504 9.74249C12.7504 9.32249 12.4129 8.99249 12.0004 8.99249ZM14.2504 7.47749V12.885C14.2504 14.3025 14.2204 14.6475 14.0854 14.91C13.9354 15.1875 13.7104 15.42 13.4254 15.5625C13.1554 15.6975 12.8179 15.72 11.3929 15.72H6.59289C5.16789 15.72 4.82289 15.69 4.56039 15.555C4.27539 15.405 4.04289 15.18 3.90039 14.895C3.75789 14.625 3.73539 14.2875 3.73539 12.8625V5.06249C3.73539 3.63749 3.75789 3.29249 3.89289 3.02999C4.03539 2.74499 4.26039 2.51249 4.54539 2.36999C4.80789 2.22749 5.14539 2.20499 6.57039 2.20499H8.97789C9.59289 2.20499 9.73539 2.20499 9.88539 2.24249C10.0354 2.27249 10.1779 2.33249 10.3129 2.41499C10.3279 2.42249 10.3429 2.43749 10.3654 2.44499C10.4779 2.51999 10.5904 2.62499 10.9804 3.02249L13.3654 5.40749C13.8004 5.84249 13.8979 5.94749 13.9729 6.07499C14.0479 6.20249 14.1154 6.35249 14.1454 6.50249C14.1754 6.64499 14.1829 6.78749 14.1829 7.40999L14.2504 7.47749ZM15.7504 7.47749C15.7504 6.71999 15.7354 6.52499 15.6604 6.21749C15.5854 5.90999 15.4654 5.61749 15.3004 5.34749C15.1279 5.06999 15.0004 4.92749 14.4679 4.39499L12.0754 2.00249C11.6104 1.53749 11.4754 1.40999 11.2579 1.25999C11.2054 1.22249 11.1604 1.19249 11.1154 1.16249C10.8454 0.997494 10.5529 0.869994 10.2454 0.802494C9.93039 0.727494 9.74289 0.712494 8.98539 0.712494H6.57039C4.83789 0.712494 4.43289 0.742494 3.85539 1.03499C3.28539 1.31999 2.82789 1.77749 2.54289 2.33999C2.24289 2.90999 2.21289 3.32249 2.21289 5.04749V12.8475C2.21289 14.5725 2.24289 14.9775 2.53539 15.555C2.82039 16.1175 3.27789 16.575 3.84039 16.86C4.41039 17.1525 4.82289 17.1825 6.54789 17.1825H11.3479C13.0729 17.1825 13.4779 17.145 14.0554 16.8525C14.6179 16.56 15.0754 16.1025 15.3604 15.54C15.6529 14.9625 15.6829 14.55 15.6829 12.825V7.40999L15.7504 7.47749Z" fill="url(#paint0_linear_105_1181)"/>
<defs>
<linearGradient id="paint0_linear_105_1181" x1="2.21289" y1="8.9475" x2="15.7466" y2="8.72117" gradientUnits="userSpaceOnUse">
<stop stop-color="white" stop-opacity="0.8"/>
<stop offset="1" stop-color="white" stop-opacity="0.4"/>
</linearGradient>
</defs>
</svg>

<svg xmlns="http://www.w3.org/2000/svg" width="18" height="18" fill="none">
  <path fill="url(#paint0_linear_105_1181)" d="M9.75 1.695v3.097c0 .675.008.833.158 1.125.142.278.367.51.652.653.293.15.45.157 1.125.157h3.098c.412 0 .75-.337.75-.75 0-.42-.338-.75-.75-.75h-3.105c-.375 0-.465-.007-.458 0l-.007-.007V1.665c0-.42-.338-.75-.75-.75-.42 0-.75.33-.75.75l.037.03Zm.75 10.297H6c-.42 0-.75.33-.75.75 0 .413.33.75.75.75h4.5c.413 0 .75-.337.75-.75 0-.42-.337-.75-.75-.75Zm1.5-3H6c-.42 0-.75.33-.75.75 0 .413.33.75.75.75h6c.413 0 .75-.337.75-.75 0-.42-.337-.75-.75-.75Zm2.25-1.515v5.408c0 1.418-.03 1.763-.165 2.025a1.54 1.54 0 0 1-.66.652c-.27.136-.607.158-2.032.158h-4.8c-1.425 0-1.77-.03-2.033-.165a1.517 1.517 0 0 1-.66-.66c-.142-.27-.165-.607-.165-2.032v-7.8c0-1.426.023-1.77.158-2.033.142-.285.367-.518.652-.66.263-.143.6-.165 2.025-.165h2.408c.615 0 .757 0 .907.037.15.03.293.09.428.173.015.007.03.022.052.03.113.075.225.18.615.577l2.385 2.385c.435.435.533.54.608.668.075.127.142.277.172.427.03.143.038.285.038.908l.067.067Zm1.5 0c0-.757-.015-.952-.09-1.26a3.05 3.05 0 0 0-.36-.87c-.172-.277-.3-.42-.832-.952l-2.393-2.393c-.465-.465-.6-.592-.817-.742-.053-.038-.098-.068-.143-.098a2.85 2.85 0 0 0-.87-.36c-.315-.075-.502-.09-1.26-.09H6.57c-1.732 0-2.137.03-2.715.323A2.946 2.946 0 0 0 2.543 2.34c-.3.57-.33.982-.33 2.707v7.8c0 1.726.03 2.13.322 2.708.285.563.743 1.02 1.305 1.305.57.293.983.323 2.708.323h4.8c1.725 0 2.13-.038 2.707-.33a3.022 3.022 0 0 0 1.305-1.313c.293-.577.323-.99.323-2.715V7.41l.067.067Z"/>
  <defs>
    <linearGradient id="paint0_linear_105_1181" x1="2.213" x2="15.747" y1="8.947" y2="8.721" gradientUnits="userSpaceOnUse">
      <stop stop-color="#fff" stop-opacity=".8"/>
      <stop offset="1" stop-color="#fff" stop-opacity=".4"/>
    </linearGradient>
  </defs>
</svg>
